assets/icons/producto-chapacambio.svg

<svg width="58" height="60" viewBox="0 0 58 60" fill="none" xmlns="http://www.w3.org/2000/svg">
<path d="M46.7094 38.1871C46.3612 38.1871 46.0562 38.4347 45.9756 38.7897L43.6247 49.0129C43.5125 49.5051 43.8722 49.9764 44.3613 49.9764C44.7095 49.9764 45.0117 49.7288 45.0951 49.3768L47.4748 39.1536C47.5899 38.6614 47.2302 38.1871 46.7411 38.1871H46.7094Z" fill="black"/>
<path d="M57.6901 25.0136C57.6412 17.9734 54.6831 11.3001 49.5985 6.62256C44.6117 2.20752 37.7718 0 29.0758 0C20.3799 0 13.5429 2.20752 8.55612 6.62256C3.47151 11.3001 0.539299 17.9734 0.464483 25.0136C0.36377 25.9741 0.36377 27.6119 0.36377 30.0014C0.36377 32.3909 0.464483 34.0525 0.464483 35.013C0.916257 42.9601 3.54633 49.1441 8.30578 53.5055C13.14 57.8429 20.0576 59.9998 29.05 59.9998C38.0451 60.0266 44.9599 57.8429 49.7941 53.5055C54.6284 49.168 57.2613 42.9869 57.6872 35.013C57.9117 33.065 57.9117 31.4034 57.9117 30.0014C57.9117 28.5993 57.8368 26.884 57.6872 25.0136H57.6901ZM31.3318 45.6897V50.4686H25.594V45.7165C20.7828 44.9618 17.252 42.2889 15.4219 38.4436L20.9353 35.2994C22.187 37.7665 24.9178 39.5862 28.5003 39.5862C31.7836 39.5862 34.1892 38.1065 34.1892 35.9497C34.1892 33.7929 32.7102 32.7548 28.7766 31.663L24.9696 30.598C19.4562 29.0647 16.501 25.8966 16.501 21.2727C16.501 16.0791 19.9828 12.1563 25.5969 11.1957V6.41672H31.3347V11.2464C35.4928 12.025 38.9026 14.4682 40.5054 17.9465L35.0439 21.1146C33.9677 18.8027 31.2858 17.2455 28.2299 17.2455C25.1739 17.2455 23.1683 18.6744 23.1683 20.9326C23.1683 22.8806 24.6473 23.8949 28.6298 25.0374L32.4368 26.1024C37.9502 27.6357 40.9054 30.8307 40.9054 35.6365C40.9054 40.8063 37.1963 44.7261 31.3347 45.6897H31.3318Z" fill="#4CAD36"/>
</svg>

<svg version="1.2" xmlns="http://www.w3.org/2000/svg" viewBox="0 0 58 60" width="58" height="60">
	<style>
		.s0 { fill: #0865d8 } 
	</style>
	<path class="s0" d="m46.71 38.19c-0.35 0-0.65 0.24-0.73 0.6l-2.36 10.22c-0.11 0.5 0.25 0.97 0.74 0.97 0.35 0 0.65-0.25 0.74-0.6l2.37-10.23c0.12-0.49-0.24-0.96-0.73-0.96z"/>
	<path class="s0" d="m57.69 25.01c-0.05-7.04-3.01-13.71-8.09-18.39q-7.48-6.62-20.52-6.62-13.05 0-20.52 6.62c-5.09 4.68-8.02 11.35-8.1 18.39-0.1 0.96-0.1 2.6-0.1 4.99 0 2.39 0.1 4.05 0.1 5.01 0.46 7.95 3.09 14.13 7.85 18.5q7.25 6.5 20.74 6.49 13.49 0.03 20.74-6.49 7.26-6.52 7.9-18.5c0.22-1.95 0.22-3.61 0.22-5.01 0-1.4-0.07-3.12-0.22-4.99zm-26.36 20.68v4.78h-5.74v-4.75c-4.81-0.76-8.34-3.43-10.17-7.28l5.51-3.14c1.25 2.47 3.98 4.29 7.57 4.29 3.28 0 5.69-1.48 5.69-3.64 0-2.16-1.48-3.2-5.42-4.29l-3.8-1.06c-5.52-1.54-8.47-4.7-8.47-9.33 0-5.19 3.48-9.11 9.09-10.07v-4.78h5.74v4.83c4.16 0.77 7.57 3.22 9.17 6.7l-5.46 3.16c-1.08-2.31-3.76-3.86-6.81-3.86-3.06 0-5.06 1.42-5.06 3.68 0 1.95 1.47 2.96 5.46 4.11l3.8 1.06c5.52 1.54 8.47 4.73 8.47 9.54 0 5.17-3.71 9.09-9.57 10.05z"/>
</svg>
